svg/Mapbox-maki/rail-metro-24.svg

<?xml version="1.0" encoding="UTF-8" standalone="no"?>
<!-- Created with Inkscape (http://www.inkscape.org/) -->

<svg
   xmlns:dc="http://purl.org/dc/elements/1.1/"
   xmlns:cc="http://creativecommons.org/ns#"
   xmlns:rdf="http://www.w3.org/1999/02/22-rdf-syntax-ns#"
   xmlns:svg="http://www.w3.org/2000/svg"
   xmlns="http://www.w3.org/2000/svg"
   xmlns:sodipodi="http://sodipodi.sourceforge.net/DTD/sodipodi-0.dtd"
   xmlns:inkscape="http://www.inkscape.org/namespaces/inkscape"
   width="24"
   height="24"
   id="svg4460"
   version="1.1"
   inkscape:version="0.48.4 r"
   sodipodi:docname="rail-metro-24.svg">
  <defs
     id="defs4462" />
  <sodipodi:namedview
     id="base"
     pagecolor="#ffffff"
     bordercolor="#666666"
     borderopacity="1.0"
     inkscape:pageopacity="0.0"
     inkscape:pageshadow="2"
     inkscape:zoom="22.627417"
     inkscape:cx="8.9276312"
     inkscape:cy="14.172262"
     inkscape:document-units="px"
     inkscape:current-layer="layer1"
     showgrid="true"
     showguides="false"
     inkscape:guide-bbox="true"
     inkscape:window-width="1203"
     inkscape:window-height="948"
     inkscape:window-x="221"
     inkscape:window-y="30"
     inkscape:window-maximized="0">
    <inkscape:grid
       type="xygrid"
       id="grid4468"
       empspacing="2"
       visible="true"
       enabled="true"
       snapvisiblegridlinesonly="true"
       color="#ff00ff"
       opacity="0.1254902"
       empcolor="#ff00ff"
       empopacity="0.25098039" />
    <sodipodi:guide
       orientation="1,0"
       position="0,20"
       id="guide4470" />
    <sodipodi:guide
       orientation="0,1"
       position="4,24"
       id="guide4472" />
    <sodipodi:guide
       orientation="1,0"
       position="24,13"
       id="guide4474" />
    <sodipodi:guide
       orientation="0,1"
       position="15,0"
       id="guide4476" />
    <sodipodi:guide
       orientation="1,0"
       position="23,20"
       id="guide4478" />
    <sodipodi:guide
       orientation="0,1"
       position="20,23"
       id="guide4480" />
    <sodipodi:guide
       orientation="1,0"
       position="2,5"
       id="guide4482" />
    <sodipodi:guide
       orientation="0,1"
       position="7,2"
       id="guide4484" />
    <sodipodi:guide
       orientation="1,0"
       position="12.5,21"
       id="guide4486" />
    <sodipodi:guide
       orientation="0,1"
       position="16,13"
       id="guide4490" />
    <sodipodi:guide
       orientation="1,0"
       position="3,13.5"
       id="guide3012" />
    <sodipodi:guide
       orientation="0,1"
       position="6.5,22"
       id="guide3014" />
    <sodipodi:guide
       orientation="1,0"
       position="22,18"
       id="guide3016" />
    <sodipodi:guide
       orientation="0,1"
       position="13.5,3"
       id="guide3018" />
  </sodipodi:namedview>
  <metadata
     id="metadata4465">
    <rdf:RDF>
      <cc:Work
         rdf:about="">
        <dc:format>image/svg+xml</dc:format>
        <dc:type
           rdf:resource="http://purl.org/dc/dcmitype/StillImage" />
        <dc:title />
      </cc:Work>
    </rdf:RDF>
  </metadata>
  <g
     inkscape:label="Layer 1"
     inkscape:groupmode="layer"
     id="layer1"
     transform="translate(0,-1028.3622)">
    <path
       style="font-size:medium;font-style:normal;font-variant:normal;font-weight:normal;font-stretch:normal;text-indent:0;text-align:start;text-decoration:none;line-height:normal;letter-spacing:normal;word-spacing:normal;text-transform:none;direction:ltr;block-progression:tb;writing-mode:lr-tb;text-anchor:start;baseline-shift:baseline;color:#000000;fill:#ffffff;fill-opacity:1;stroke:none;stroke-width:2;marker:none;visibility:visible;display:inline;overflow:visible;enable-background:accumulate;font-family:Sans;-inkscape-font-specification:Sans;opacity:0.3"
       d="M 9.8125 1 A 1.0001 1.0001 0 0 0 9 2 C 7.3552972 2 6 3.3553 6 5 L 6 15 C 6 16.223624 6.7511003 17.285681 7.8125 17.75 L 5.28125 20.28125 C 4.7068834 20.83665 5.201277 22.0188 6 22 L 10 22 C 10.335757 22 10.665381 21.81575 10.84375 21.53125 L 12.5 19.0625 L 14.15625 21.53125 C 14.334619 21.81575 14.664243 21.9988 15 22 L 19 22 C 19.798723 22.019 20.293117 20.83665 19.71875 20.28125 L 17.1875 17.75 C 18.2489 17.285681 19 16.223624 19 15 L 19 5 C 19 3.3553 17.644703 2 16 2 A 1.0001 1.0001 0 0 0 15 1 L 10 1 A 1.0001 1.0001 0 0 0 9.90625 1 A 1.0001 1.0001 0 0 0 9.8125 1 z M 11 3 L 14 3 A 1.0001 1.0001 0 0 0 14.8125 4 L 10.1875 4 A 1.0001 1.0001 0 0 0 11 3 z M 9 4 L 10 4 C 8.9092972 4 8 4.9093 8 6 L 8 5 C 8 4.4287 8.4287028 4 9 4 z M 15 4 L 16 4 C 16.571297 4 17 4.4287 17 5 L 17 6 C 17 4.9093 16.090703 4 15 4 z M 10 6 L 15 6 L 15 8 L 10 8 L 10 6 z M 8 9.1875 A 1.0001 1.0001 0 0 0 9 10 L 16 10 A 1.0001 1.0001 0 0 0 17 9.1875 L 17 14 L 17 15 C 17 15.5713 16.571297 16 16 16 L 15 16 L 10 16 L 9 16 C 8.4287028 16 8 15.5713 8 15 L 8 14 L 8 9.1875 z M 8 14 C 8 15.0927 8.9072754 16 10 16 C 11.092725 16 12 15.0927 12 14 C 12 12.9073 11.092725 12 10 12 C 8.9072754 12 8 12.9073 8 14 z M 15 16 C 16.092725 16 17 15.0927 17 14 C 17 12.9073 16.092725 12 15 12 C 13.907275 12 13 12.9073 13 14 C 13 15.0927 13.907275 16 15 16 z "
       transform="translate(0,1028.3622)"
       id="path3259" />
    <path
       style="fill:#444444;fill-opacity:1;stroke:none"
       d="M 10 2 L 10 3 L 9 3 C 7.892 3 7 3.892 7 5 L 7 15 C 7 16.108 7.892 17 9 17 L 16 17 C 17.108 17 18 16.108 18 15 L 18 5 C 18 3.892 17.108 3 16 3 L 15 3 L 15 2 L 10 2 z M 10 5 L 15 5 C 15.554 5 16 5.446 16 6 L 16 9 L 9 9 L 9 6 C 9 5.446 9.446 5 10 5 z M 10 13 C 10.552285 13 11 13.447715 11 14 C 11 14.552285 10.552285 15 10 15 C 9.4477153 15 9 14.552285 9 14 C 9 13.447715 9.4477153 13 10 13 z M 15 13 C 15.552285 13 16 13.447715 16 14 C 16 14.552285 15.552285 15 15 15 C 14.447715 15 14 14.552285 14 14 C 14 13.447715 14.447715 13 15 13 z M 9 18 L 6 21 L 10 21 L 12 18 L 9 18 z M 13 18 L 15 21 L 19 21 L 16 18 L 13 18 z "
       transform="translate(0,1028.3622)"
       id="rect3004" />
  </g>
</svg>

<svg xmlns="http://www.w3.org/2000/svg" viewBox="0 0 24 24"><path d="M9.8125 1A1.0001 1.0001 0 0 0 9 2C7.355 2 6 3.355 6 5V15C6 16.224 6.751 17.286 7.813 17.75L5.281 20.281C4.707 20.837 5.201 22.02 6 22H10C10.336 22 10.665 21.816 10.844 21.531L12.5 19.06 14.156 21.531C14.335 21.816 14.664 21.999 15 22H19C19.799 22.02 20.293 20.837 19.719 20.281L17.188 17.75C18.249 17.286 19 16.224 19 15V5C19 3.355 17.645 2 16 2A1.0001 1.0001 0 0 0 15 1H10A1.0001 1.0001 0 0 0 9.90625 1 1.0001 1.0001 0 0 0 9.8125 1M11 3H14A1.0001 1.0001 0 0 0 14.8125 4H10.188A1.0001 1.0001 0 0 0 11 3M9 4H10C8.909 4 8 4.909 8 6V5C8 4.429 8.429 4 9 4M15 4H16C16.571 4 17 4.429 17 5V6C17 4.909 16.09 4 15 4M10 6H15V8H10V6M8 9.1875A1.0001 1.0001 0 0 0 9 10H16A1.0001 1.0001 0 0 0 17 9.1875V14 15C17 15.571 16.571 16 16 16H15 10 9C8.429 16 8 15.571 8 15V14 9.188M8 14C8 15.09 8.907 16 10 16 11.09 16 12 15.09 12 14 12 12.907 11.09 12 10 12 8.907 12 8 12.907 8 14M15 16C16.09 16 17 15.09 17 14 17 12.907 16.09 12 15 12 13.907 12 13 12.907 13 14 13 15.09 13.907 16 15 16" opacity=".3" color="#000" fill="#fff"/><path d="m10 2v1h-1c-1.108 0-2 .892-2 2v10c0 1.108.892 2 2 2h7c1.108 0 2-.892 2-2v-10c0-1.108-.892-2-2-2h-1v-1h-5m0 3h5c.554 0 1 .446 1 1v3h-7v-3c0-.554.446-1 1-1m0 8c.552 0 1 .448 1 1 0 .552-.448 1-1 1-.552 0-1-.448-1-1 0-.552.448-1 1-1m5 0c.552 0 1 .448 1 1 0 .552-.448 1-1 1-.552 0-1-.448-1-1 0-.552.448-1 1-1m-6 5l-3 3h4l2-3h-3m4 0l2 3h4l-3-3h-3" fill="#444"/></svg>
